X:1
T:MARCH
T:BWV Anh 127
T:Anna Magdalena Bach Notebook 
%%score { ( 1 3 ) | ( 2 4 ) }
L:1/8
Q:1/4=96
M:4/4
K:Eb
V:1 treble nm="Harpsichord, Klavier, rechte Hand" snm="Hch."
V:3 treble 
V:2 bass 
V:4 bass 
V:1
!mf! (EG | B2 cd eB g2) | (!tenuto!gfed e2) A2 | A2 G4 F2 | (3(GFE) E4!mp! g2 | %5
 (3(!tenuto!fed)!<(! .d.d (d!<)!!>(!fed)!>)! | (3(!tenuto!edc) .c.c (cedc) | %7
!p!!<(! (3(!tenuto!def) dddd (!tenuto!bd) | (3cde cccc (!tenuto!c'e)!<)! | %9
!f! (3db=a (3gfe (3dcB!>(! (3d/c/d/c | B6!>)! ::!mf!!<(! (Bd | !>!f2 edcB !tenuto!a2)!<)! | %13
 (3(b/a/b/a g4) (G2 |!<(! (3edc (3fed (3gfe ac)!<)! |!>(! (3(d/c/d/c =B4)!>)!!p!!<(! .G.G | %16
 (=BGdG) (GF).F.F | (=BGdF) (FE) .c.e | (!tenuto!gc) (3(fed)!f! (e/!<)!d/e/d/ e/d/c/d/ | %19
!>(! c6)!>)!!mf! (ed |!<(! eB !>!g4)!<)! _d2 |!>(! (3(e/_d/e/d c4)!>)!!mp!!<(! =d2 | %22
 (3(efg (3agf (3gfe!<)!!f! be) |!>(! (3(!tenuto!dcB) B4 A2!>)! |!p! (3(GAB) GGGG (!tenuto!eG) | %25
 (3(FGA) FFFF (!tenuto!fA) |!<(! (3(GAB) GG (gBAG) | (3(FGA) FF fAGF!<)! | %28
!f! (3Ged (3cBA (3GFE!>(! (3(G/F/G/F | E6)!>)! :| %30
V:2
 (E,2 | G,2 A,F, G,2 E,2) | (B,,2 B,2 E,2) .A,2 | (B,4 B,,4 | E,2) (G,F, G,2) E,2 | %5
 .D,2 .B,2 .B,,2 .B,2 | .F,,2 .[F,=A,]2 .[F,A,]2 .[F,A,]2 | .F,2 .F,2 .F,2 .F,2 | %8
 .F,2 .F,2 .F,2 .F,2 | B,2 E,2 F,2 F,,2 | B,,2 F,,2 B,,,2 :: !tenuto!.B,,2 | %12
 !tenuto!.B,,2 !tenuto!.C,2 !tenuto!.D,2 !tenuto!.B,,2 | !tenuto!.E,,2 (E,D, E,F,E,D, | %14
 C,2) !tenuto!.D,2 !tenuto!.E,2 !tenuto!.F,2 | !tenuto!.G,,2 (G,^F, G,2) .G,,2 | %16
 .G,,2 .G,,2 .G,,2 .G,,2 | .G,,2 .G,,2 .C,2 .C,2 | !tenuto!.E,2 !tenuto!.A,2 (G,2 G,,2 | %19
 C,2) (C2 B,A,G,F, | G,2) (E,F, G,2) !tenuto!.E,2 | !tenuto!.A,,2 (A,G, A,2) !tenuto!.F,2 | %22
 !tenuto!.G,2 !tenuto!.D,2 !tenuto!.E,2 !tenuto!.G,2 | !tenuto!.B,2 (B,,C, D,2) B,,2 | %24
 .E,2 .E,2 .E,2 .E,,2 | .B,,2 .B,,2 .B,,2 .B,,2 | .B,,2 .B,,2 .B,,2 .B,,2 | %27
 .B,,2 .B,,2 .B,,2 .B,,2 | E,2 A,2 B,2 B,,2 | E,2 B,,2 E,,2 :| %30
V:3
 x2 | x8 | x6 c2 | (c2 B4) A2 | x8 | x8 | x8 | x2 .f.f.f.f x2 | x2 .e.e.e.e x2 | x8 | x6 :: x2 | %12
 x8 | x8 | x8 | x8 | x8 | x8 | x8 | x8 | x8 | x8 | x8 | x8 | x2 .B.B.B.B x2 | x2 .A.A.A.A x2 | %26
 x2 .B.B x4 | x2 .A.A x4 | x8 | x6 :| %30
V:4
 x2 | x8 | x8 | x8 | x8 | x8 | x8 | B,2 B,2 B,2 B,2 | =A,2 A,2 A,2 A,2 | x8 | x6 :: x2 | x8 | x8 | %14
 x8 | x8 | x8 | x8 | x8 | x8 | x8 | x8 | x8 | x8 | x8 | x2 D,2 D,2 D,2 | E,2 E,E, E,2 E,2 | %27
 D,2 D,2 D,2 D,2 | x8 | x6 :| %30

